src/img/categ_5.svg

<svg width="100" height="100" viewBox="0 0 100 100" fill="none" xmlns="http://www.w3.org/2000/svg">
<g clip-path="url(#clip0_628_588)">
<path d="M82.7649 100H17.2349C16.5878 100 16.0631 99.4753 16.0631 98.828V1.17179C16.0631 0.524663 16.5878 0 17.2349 0H82.7649C83.412 0 83.9369 0.524663 83.9369 1.17179V98.828C83.9367 99.4753 83.412 100 82.7649 100ZM18.4069 97.6562H81.5929V2.34375H18.4069V97.6562Z" fill="#1E2E36"/>
<path d="M49.9998 71.4942C49.3527 71.4942 48.8279 71.119 48.8279 70.6564V0.837839C48.8279 0.37517 49.3525 0 49.9998 0C50.6471 0 51.1716 0.37517 51.1716 0.837839V70.6562C51.1718 71.1189 50.6471 71.4942 49.9998 71.4942Z" fill="#1E2E36"/>
<path d="M49.9998 100H17.2349C16.5878 100 16.0631 99.4753 16.0631 98.828V84.5751C16.0631 83.928 16.5878 83.4033 17.2349 83.4033H49.9998C50.6469 83.4033 51.1716 83.928 51.1716 84.5751V98.828C51.1718 99.4753 50.6471 100 49.9998 100ZM18.4069 97.6562H48.828V85.7471H18.4069V97.6562Z" fill="#1E2E36"/>
<path d="M49.9998 85.7472H17.2349C16.5878 85.7472 16.0631 85.2225 16.0631 84.5752V70.3224C16.0631 69.6752 16.5878 69.1504 17.2349 69.1504H49.9998C50.6469 69.1504 51.1716 69.6751 51.1716 70.3224V84.5752C51.1718 85.2225 50.6471 85.7472 49.9998 85.7472ZM18.4067 83.4035H48.8279V71.4943H18.4069L18.4067 83.4035Z" fill="#1E2E36"/>
<path d="M35.2667 78.6206H31.9681C31.3209 78.6206 30.7963 78.0959 30.7963 77.4488C30.7963 76.8017 31.3209 76.2769 31.9681 76.2769H35.2667C35.9138 76.2769 36.4385 76.8015 36.4385 77.4488C36.4385 78.0961 35.9138 78.6206 35.2667 78.6206Z" fill="#1E2E36"/>
<path d="M43.0937 38.3537C42.4466 38.3537 41.9218 37.8291 41.9218 37.1819V34.3122C41.9218 33.665 42.4464 33.1404 43.0937 33.1404C43.741 33.1404 44.2655 33.665 44.2655 34.3122V37.1819C44.2655 37.8291 43.7408 38.3537 43.0937 38.3537Z" fill="#1E2E36"/>
<path d="M56.906 52.607C56.2589 52.607 55.7343 52.0823 55.7343 51.435V48.5653C55.7343 47.9181 56.2589 47.3933 56.906 47.3933C57.5532 47.3933 58.078 47.918 58.078 48.5653V51.435C58.078 52.0823 57.5533 52.607 56.906 52.607Z" fill="#1E2E36"/>
<path d="M35.2667 92.8735H31.9681C31.3209 92.8735 30.7963 92.3489 30.7963 91.7018C30.7963 91.0546 31.3209 90.5298 31.9681 90.5298H35.2667C35.9138 90.5298 36.4385 91.0545 36.4385 91.7018C36.4385 92.3491 35.9138 92.8735 35.2667 92.8735Z" fill="#1E2E36"/>
</g>
<defs>
<clipPath id="clip0_628_588">
<rect width="100" height="100" fill="white"/>
</clipPath>
</defs>
</svg>

<svg width="100" height="100" fill="none" xmlns="http://www.w3.org/2000/svg"><g clip-path="url(#clip0_628_588)" fill="#1E2E36"><path d="M82.765 100h-65.53a1.172 1.172 0 01-1.172-1.172V1.172c0-.647.525-1.172 1.172-1.172h65.53c.647 0 1.172.525 1.172 1.172v97.656c0 .647-.525 1.172-1.172 1.172zm-64.358-2.344h63.186V2.344H18.407v95.312z"/><path d="M50 71.494c-.647 0-1.172-.375-1.172-.838V.838C48.828.375 49.352 0 50 0c.647 0 1.172.375 1.172.838v69.818c0 .463-.525.838-1.172.838zM50 100H17.235a1.172 1.172 0 01-1.172-1.172V84.575c0-.647.525-1.172 1.172-1.172H50c.647 0 1.172.525 1.172 1.172v14.253c0 .647-.525 1.172-1.172 1.172zm-31.593-2.344h30.421V85.747H18.407v11.91z"/><path d="M50 85.747H17.235a1.172 1.172 0 01-1.172-1.172V70.322c0-.647.525-1.172 1.172-1.172H50c.647 0 1.172.525 1.172 1.172v14.253c0 .647-.525 1.172-1.172 1.172zm-31.593-2.344h30.42V71.494h-30.42v11.91z"/><path d="M35.267 78.62h-3.299a1.172 1.172 0 010-2.343h3.299a1.172 1.172 0 010 2.344zm7.827-40.266a1.172 1.172 0 01-1.172-1.172v-2.87a1.172 1.172 0 112.344 0v2.87c0 .647-.525 1.172-1.172 1.172zm13.812 14.253a1.172 1.172 0 01-1.172-1.172v-2.87a1.172 1.172 0 112.344 0v2.87c0 .647-.525 1.172-1.172 1.172zM35.267 92.874h-3.299a1.172 1.172 0 110-2.344h3.299a1.172 1.172 0 010 2.344z"/></g><defs><clipPath id="clip0_628_588"><path fill="#fff" d="M0 0h100v100H0z"/></clipPath></defs></svg>
